src/icons/lua.svg

<?xml version="1.0" encoding="UTF-8"?>
<svg xmlns="http://www.w3.org/2000/svg" xmlns:xlink="http://www.w3.org/1999/xlink" width="32" height="32" viewBox="0 0 32 32" version="1.1">
<g id="surface1">
<path style="fill:none;stroke-width:0.7341;stroke-linecap:round;stroke-linejoin:round;stroke:rgb(50.196081%,50.196081%,50.196081%);stroke-opacity:1;stroke-miterlimit:4;" d="M 30.623196 9.103976 C 34.264786 16.25825 32.045189 25.003707 25.426679 29.551666 C 18.812197 34.099626 9.849213 33.040181 4.47545 27.074257 C -0.894284 21.104305 -1.015134 12.080895 4.201525 5.978009 C 9.414155 -0.128906 18.344914 -1.421993 25.080244 2.948721 " transform="matrix(0.9697,0,0,0.9697,0,0)"/>
<path style=" stroke:none;fill-rule:nonzero;fill:rgb(0%,0%,50.196081%);fill-opacity:1;" d="M 3.871094 15.871094 C 3.871094 9.222656 9.222656 3.871094 15.871094 3.871094 C 22.519531 3.871094 27.871094 9.222656 27.871094 15.871094 C 27.871094 22.519531 22.519531 27.871094 15.871094 27.871094 C 9.222656 27.871094 3.871094 22.519531 3.871094 15.871094 M 3.871094 15.871094 "/>
<path style=" stroke:none;fill-rule:nonzero;fill:rgb(100%,100%,100%);fill-opacity:1;" d="M 17.324219 10.898438 C 17.324219 9.964844 17.695312 9.070312 18.351562 8.414062 C 19.011719 7.753906 19.90625 7.386719 20.839844 7.386719 C 21.773438 7.382812 22.667969 7.753906 23.328125 8.414062 C 23.988281 9.070312 24.355469 9.964844 24.355469 10.898438 C 24.359375 11.832031 23.988281 12.726562 23.328125 13.386719 C 22.667969 14.046875 21.773438 14.417969 20.839844 14.414062 C 19.90625 14.417969 19.011719 14.046875 18.351562 13.386719 C 17.691406 12.726562 17.320312 11.832031 17.324219 10.898438 M 17.324219 10.898438 "/>
<path style=" stroke:none;fill-rule:nonzero;fill:rgb(0%,0%,50.196081%);fill-opacity:1;" d="M 24.355469 3.871094 C 24.355469 1.929688 25.929688 0.359375 27.867188 0.359375 C 29.808594 0.359375 31.382812 1.929688 31.382812 3.871094 C 31.382812 5.8125 29.808594 7.382812 27.867188 7.382812 C 25.929688 7.382812 24.355469 5.8125 24.355469 3.871094 M 24.355469 3.871094 "/>
<path style=" stroke:none;fill-rule:nonzero;fill:rgb(100%,100%,100%);fill-opacity:1;" d="M 12.621094 21.871094 L 12.621094 20.984375 L 8.730469 20.984375 L 8.730469 13.996094 L 7.726562 13.996094 L 7.726562 21.871094 Z M 18.015625 21.871094 L 18.015625 16.210938 L 17.121094 16.210938 L 17.121094 19.332031 C 17.121094 20.488281 16.515625 21.242188 15.578125 21.242188 C 14.863281 21.242188 14.410156 20.8125 14.410156 20.132812 L 14.410156 16.210938 L 13.511719 16.210938 L 13.511719 20.488281 C 13.511719 21.429688 14.214844 22.03125 15.316406 22.03125 C 16.148438 22.03125 16.679688 21.742188 17.207031 20.996094 L 17.207031 21.871094 Z M 24.601562 21.847656 L 24.601562 21.167969 C 24.503906 21.191406 24.460938 21.191406 24.40625 21.191406 C 24.09375 21.191406 23.921875 21.027344 23.921875 20.746094 L 23.921875 17.59375 C 23.921875 16.589844 23.1875 16.050781 21.792969 16.050781 C 20.421875 16.050781 19.578125 16.578125 19.527344 17.886719 L 20.433594 17.886719 C 20.507812 17.195312 20.917969 16.882812 21.761719 16.882812 C 22.570312 16.882812 23.023438 17.183594 23.023438 17.722656 L 23.023438 17.960938 C 23.023438 18.339844 22.796875 18.5 22.085938 18.585938 C 20.8125 18.75 20.617188 18.792969 20.269531 18.933594 C 19.613281 19.203125 19.277344 19.710938 19.277344 20.402344 C 19.277344 21.425781 19.988281 22.03125 21.132812 22.03125 C 21.859375 22.03125 22.558594 21.730469 23.058594 21.199219 C 23.15625 21.632812 23.539062 21.941406 23.984375 21.945312 C 24.167969 21.945312 24.308594 21.925781 24.601562 21.847656 M 23.023438 19.914062 C 23.023438 20.726562 22.203125 21.242188 21.328125 21.242188 C 20.628906 21.242188 20.21875 20.996094 20.21875 20.378906 C 20.21875 19.785156 20.617188 19.527344 21.578125 19.386719 C 22.527344 19.257812 22.722656 19.214844 23.023438 19.074219 Z M 23.023438 19.914062 "/>
</g>
</svg>

<svg role="img" viewBox="0 0 32 32" xmlns="http://www.w3.org/2000/svg"><path d="M30.623 9.104c3.642 7.154 1.422 15.9-5.196 20.448C18.812 34.1 9.849 33.04 4.475 27.074c-5.37-5.97-5.49-14.993-.273-21.096 5.212-6.107 14.143-7.4 20.878-3.03" style="fill:none;stroke-width:0.7341;stroke-linecap:round;stroke-linejoin:round;stroke:rgb(50.196081%,50.196081%,50.196081%);stroke-opacity:1;stroke-miterlimit:4" transform="scale(.9697)"/><path d="M3.871 15.871c0-6.648 5.352-12 12-12 6.649 0 12 5.352 12 12 0 6.649-5.351 12-12 12-6.648 0-12-5.351-12-12m0 0" style="stroke:none;fill-rule:nonzero;fill:rgb(0%,0%,50.196081%);fill-opacity:1"/><path d="M17.324 10.898a3.508 3.508 0 0 1 3.516-3.511 3.505 3.505 0 0 1 3.515 3.511 3.506 3.506 0 0 1-3.515 3.516 3.508 3.508 0 0 1-3.516-3.516m0 0" style="stroke:none;fill-rule:nonzero;fill:rgb(100%,100%,100%);fill-opacity:1"/><path d="M24.355 3.871a3.513 3.513 0 1 1 7.027 0 3.513 3.513 0 1 1-7.027 0m0 0" style="stroke:none;fill-rule:nonzero;fill:rgb(0%,0%,50.196081%);fill-opacity:1"/><path d="M12.621 21.871v-.887h-3.89v-6.988H7.726v7.875zm5.395 0v-5.66h-.895v3.121c0 1.156-.605 1.91-1.543 1.91-.715 0-1.168-.43-1.168-1.11v-3.921h-.898v4.277c0 .942.703 1.543 1.804 1.543.832 0 1.364-.289 1.891-1.035v.875zm6.586-.023v-.68c-.098.023-.141.023-.196.023-.312 0-.484-.164-.484-.445v-3.152c0-1.004-.735-1.543-2.129-1.543-1.371 0-2.215.527-2.266 1.836h.907c.074-.692.484-1.004 1.328-1.004.808 0 1.261.3 1.261.84v.238c0 .379-.226.539-.937.625-1.273.164-1.469.207-1.816.348-.657.27-.993.777-.993 1.468 0 1.024.711 1.63 1.856 1.63.726 0 1.426-.302 1.926-.833a.952.952 0 0 0 .925.746c.184 0 .325-.02.618-.097m-1.579-1.934c0 .813-.82 1.328-1.695 1.328-.7 0-1.11-.246-1.11-.863 0-.594.4-.852 1.36-.992.95-.13 1.145-.172 1.445-.313z" style="stroke:none;fill-rule:nonzero;fill:rgb(100%,100%,100%);fill-opacity:1"/></svg>
